X: 16141
T: Green Grow The Rushes
R: barndance
M: 4/4
K: Gmajor
|:G2 GA|BG GB|AB cd|eA AB|
cd ec|Bc dB|Ac BA|1 GE EF:|2 GE Ef||
|:g2 gf|ed d(3B/c/d/|ea ab|ag ef|
g2 gf|ed dB|Ac BA|1 GE Ef:|2 GE EF||

